X:368
T: Kun?zi
N: C1403
O: China, Shaanxi Mianxian
S: I, 69]
R: Xiaodiao. Fun? ku]
M: 2/4
L: 1/16
K: C
e2e2d4 | c3cA4 |
ec2cc2e2 | c2c2A4 |
cA2Ac2c2 | e2e2d4 | c3cA4 |
ec2cc2e2 | c2e2c2c2 | A2A2c4 | c2A2G4

